assets/icons/carriage/PLAETZEROLLSTUHL.svg

<svg width="34" height="34" viewBox="0 0 34 34" fill="none" xmlns="http://www.w3.org/2000/svg">
<g clip-path="url(#clip0_131_38)">
<rect width="34" height="34" rx="17" fill="#414141"/>
<path d="M24.2831 16.0678C24.0433 15.8218 23.7084 15.692 23.3661 15.7107L19.223 15.9413L21.503 13.3446C21.8278 12.9747 21.9206 12.4816 21.7951 12.041C21.7288 11.7391 21.546 11.4644 21.2651 11.2889C21.2564 11.2827 15.8151 8.12168 15.8151 8.12168C15.3708 7.86358 14.8109 7.92044 14.4274 8.26244L11.7694 10.6335C11.2797 11.0703 11.2368 11.8214 11.6736 12.3111C12.1105 12.8008 12.8616 12.8438 13.3513 12.4069L15.3665 10.6093L17.0324 11.5767L14.0918 14.9258C12.8724 15.1246 11.7753 15.6865 10.9141 16.4966L12.4497 18.0323C13.1438 17.4011 14.0656 17.0158 15.0755 17.0158C17.2298 17.0158 18.9825 18.7685 18.9825 20.9228C18.9825 21.9328 18.5972 22.8544 17.9661 23.5486L19.5016 25.0842C20.5245 23.9968 21.1523 22.5336 21.1523 20.9228C21.1523 19.9631 20.9295 19.0556 20.5333 18.2486L22.137 18.1592L21.7469 22.9445C21.6936 23.5985 22.1806 24.1719 22.8347 24.2253C22.8675 24.228 22.9002 24.2293 22.9326 24.2293C23.545 24.2293 24.065 23.7587 24.1156 23.1375L24.6163 16.9937C24.6442 16.6514 24.5227 16.3137 24.2831 16.0678Z" fill="white"/>
<path d="M22.0828 10.978C23.1812 10.978 24.0716 10.0875 24.0716 8.98902C24.0716 7.89057 23.1812 7 22.0828 7C20.9842 7 20.0938 7.89057 20.0938 8.98902C20.0938 10.0875 20.9842 10.978 22.0828 10.978Z" fill="white"/>
<path d="M15.0768 24.8308C12.9225 24.8308 11.1698 23.0781 11.1698 20.9238C11.1698 20.1119 11.4189 19.3573 11.8445 18.7318L10.2923 17.1797C9.4835 18.2118 9 19.511 9 20.9238C9 24.28 11.7206 27.0006 15.0768 27.0006C16.4897 27.0006 17.7888 26.5171 18.8209 25.7083L17.2687 24.1562C16.6433 24.5816 15.8886 24.8308 15.0768 24.8308Z" fill="white"/>
</g>
<defs>
<clipPath id="clip0_131_38">
<rect width="34" height="34" fill="white"/>
</clipPath>
</defs>
</svg>

<svg xmlns="http://www.w3.org/2000/svg" width="34" height="34" fill="none"><g clip-path="url(#a)"><rect width="34" height="34" fill="#414141" rx="17"/><path fill="#fff" d="M24.283 16.068a1.19 1.19 0 0 0-.917-.357l-4.143.23 2.28-2.596c.325-.37.418-.863.292-1.304a1.183 1.183 0 0 0-.53-.752l-5.45-3.167a1.188 1.188 0 0 0-1.388.14l-2.658 2.371a1.188 1.188 0 1 0 1.582 1.774l2.015-1.798 1.666.968-2.94 3.349a6.058 6.058 0 0 0-3.178 1.57l1.536 1.536a3.892 3.892 0 0 1 2.626-1.016 3.911 3.911 0 0 1 3.907 3.907c0 1.01-.386 1.931-1.017 2.626l1.536 1.535a6.053 6.053 0 0 0 1.65-4.161c0-.96-.223-1.867-.619-2.674l1.604-.09-.39 4.786a1.188 1.188 0 0 0 2.369.192l.5-6.143a1.188 1.188 0 0 0-.333-.926ZM22.083 10.978a1.989 1.989 0 1 0 0-3.978 1.989 1.989 0 0 0 0 3.978ZM15.077 24.83a3.911 3.911 0 0 1-3.907-3.906c0-.812.249-1.567.675-2.192l-1.553-1.552a6.077 6.077 0 0 0 8.529 8.529l-1.552-1.553a3.885 3.885 0 0 1-2.192.675Z"/></g><defs><clipPath id="a"><path fill="#fff" d="M0 0h34v34H0z"/></clipPath></defs></svg>
